; generated by PrusaSlicer 2.2.0+linux-x64 on 2020-09-06 at 12:50:06 UTC

; 

; external perimeters extrusion width = 0.45mm
; perimeters extrusion width = 0.45mm
; infill extrusion width = 0.45mm
; solid infill extrusion width = 0.45mm
; top infill extrusion width = 0.40mm
; support material extrusion width = 0.40mm
; first layer extrusion width = 0.20mm

M201 X2000 Y1500 Z40 E8000 ; sets maximum accelerations, mm/sec^2
M203 X400 Y400 Z6 E30 ; sets maximum feedrates, mm/sec
M204 P1250 R1250 T1250 ; sets acceleration (P, T) and retract acceleration (R), mm/sec^2
M205 X8.00 Y8.00 Z0.40 E1.50 ; sets the jerk limits, mm/sec
M205 S0 T0 ; sets the minimum extruding and travel feed rate, mm/sec
M107 ; disable fan
M115 U3.5.1 ; tell printer latest fw version
M83  ; extruder relative mode
M104 S230 ; set extruder temp
M140 S50 ; set bed temp
M190 S50 ; wait for bed temp
M109 S230 ; wait for extruder temp
G28 W ; home all without mesh bed level
G80 ; mesh bed leveling
G1 Y-3.0 F1000.0 ; go outside print area
G92 E0.0
G1 Y5 F3000.0 
G1 X5 F3000.0 
G1 Z0.3 F1000.0 

G1 X60.0 E9.0  F1000.0 ; intro line
G1 X100.0 E12.5  F1000.0 ; intro line
G92 E0.0
M221 S95
M220 100
G21 ; set units to millimeters
G90 ; use absolute coordinates
M83 ; use relative distances for extrusion
M900 K30 ; Filament gcode
;BEFORE_LAYER_CHANGE
G92 E0.0
;0.1

G1 E-2.00000 F2400.00000 ; retract
G1 Z0.800 F7800.000 ; lift Z
;AFTER_LAYER_CHANGE
;0.1
G1 X92.852 Y53.270 ; move to first skirt point
G1 Z0.100 ; restore layer Z
G1 E2.00000 F2400.00000 ; unretract
G1 F1800.000
G1 X94.708 Y53.072 E0.01385 ; skirt
G1 X120.256 Y53.071 E0.18964 ; skirt
G1 X122.137 Y53.268 E0.01404 ; skirt
G1 X123.764 Y53.778 E0.01266 ; skirt
G1 X124.505 Y54.120 E0.00606 ; skirt
G1 X125.411 Y54.675 E0.00788 ; skirt
G1 X126.361 Y55.411 E0.00892 ; skirt
G1 X127.523 Y56.653 E0.01263 ; skirt
G1 X128.515 Y58.259 E0.01401 ; skirt
G1 X129.157 Y60.038 E0.01404 ; skirt
G1 X129.405 Y61.710 E0.01254 ; skirt
G1 X129.429 Y152.768 E0.67591 ; skirt
G1 X129.307 Y154.170 E0.01044 ; skirt
G1 X129.162 Y154.942 E0.00583 ; skirt
G1 X128.692 Y156.340 E0.01094 ; skirt
G1 X128.251 Y157.230 E0.00738 ; skirt
G1 X127.422 Y158.478 E0.01112 ; skirt
G1 X126.388 Y159.563 E0.01112 ; skirt
G1 X125.607 Y160.196 E0.00747 ; skirt
G1 X124.325 Y160.974 E0.01112 ; skirt
G1 X122.906 Y161.525 E0.01130 ; skirt
G1 X122.033 Y161.752 E0.00669 ; skirt
G1 X120.294 Y161.928 E0.01298 ; skirt
G1 X94.732 Y161.929 E0.18974 ; skirt
G1 X93.330 Y161.807 E0.01045 ; skirt
G1 X92.558 Y161.662 E0.00583 ; skirt
G1 X90.907 Y161.085 E0.01298 ; skirt
G1 X89.574 Y160.315 E0.01143 ; skirt
G1 X88.716 Y159.660 E0.00801 ; skirt
G1 X87.629 Y158.540 E0.01159 ; skirt
G1 X86.731 Y157.201 E0.01196 ; skirt
G1 X86.271 Y156.245 E0.00788 ; skirt
G1 X85.794 Y154.758 E0.01159 ; skirt
G1 X85.585 Y153.162 E0.01195 ; skirt
G1 X85.571 Y62.232 E0.67496 ; skirt
G1 X85.693 Y60.830 E0.01044 ; skirt
G1 X85.838 Y60.058 E0.00583 ; skirt
G1 X86.306 Y58.666 E0.01090 ; skirt
G1 X86.746 Y57.775 E0.00738 ; skirt
G1 X87.567 Y56.536 E0.01103 ; skirt
G1 X88.585 Y55.462 E0.01099 ; skirt
G1 X89.363 Y54.824 E0.00747 ; skirt
G1 X90.625 Y54.051 E0.01099 ; skirt
G1 X91.403 Y53.717 E0.00629 ; skirt
G1 X92.795 Y53.288 E0.01081 ; skirt
G1 F6240.000
G1 X94.708 Y53.072 E-0.70334 ; wipe and retract
G1 X97.983 Y53.072 E-1.19666 ; wipe and retract
G1 E-0.10000 F2400.00000 ; retract
G1 Z0.900 F7800.000 ; lift Z
G1 X91.683 Y58.462 ; move to first brim point
G1 Z0.100 ; restore layer Z
G1 E2.00000 F2400.00000 ; unretract
G1 F1800.000
G1 X92.742 Y57.808 E0.00924 ; brim
G1 X93.635 Y57.505 E0.00700 ; brim
G1 X94.578 Y57.382 E0.00706 ; brim
G1 X120.415 Y57.382 E0.19178 ; brim
G1 X121.416 Y57.517 E0.00750 ; brim
G1 X122.377 Y57.864 E0.00759 ; brim
G1 X123.244 Y58.404 E0.00758 ; brim
G1 X123.984 Y59.116 E0.00762 ; brim
G1 X124.694 Y60.246 E0.00991 ; brim
G1 X125.010 Y61.200 E0.00746 ; brim
G1 X125.125 Y62.200 E0.00746 ; brim
G1 X125.125 Y152.804 E0.67254 ; brim
G1 X124.973 Y153.955 E0.00862 ; brim
G1 X124.645 Y154.857 E0.00713 ; brim
G1 X124.137 Y155.692 E0.00726 ; brim
G1 X123.317 Y156.538 E0.00874 ; brim
G1 X122.257 Y157.193 E0.00924 ; brim
G1 X121.365 Y157.495 E0.00700 ; brim
G1 X120.422 Y157.618 E0.00706 ; brim
G1 X94.696 Y157.625 E0.19095 ; brim
G1 X93.545 Y157.473 E0.00862 ; brim
G1 X92.626 Y157.137 E0.00726 ; brim
G1 X91.804 Y156.635 E0.00715 ; brim
G1 X90.866 Y155.696 E0.00985 ; brim
G1 X90.363 Y154.875 E0.00715 ; brim
G1 X90.027 Y153.956 E0.00726 ; brim
G1 X89.875 Y152.804 E0.00862 ; brim
G1 X89.875 Y62.196 E0.67257 ; brim
G1 X90.027 Y61.045 E0.00862 ; brim
G1 X90.355 Y60.143 E0.00713 ; brim
G1 X90.863 Y59.308 E0.00726 ; brim
G1 X91.641 Y58.505 E0.00830 ; brim
G1 X91.787 Y58.608 F7800.000 ; move to first brim point
G1 F1800.000
G1 X92.810 Y57.973 E0.00893 ; brim
G1 X93.684 Y57.677 E0.00685 ; brim
G1 X94.595 Y57.560 E0.00682 ; brim
G1 X120.397 Y57.560 E0.19152 ; brim
G1 X121.365 Y57.688 E0.00724 ; brim
G1 X122.291 Y58.021 E0.00730 ; brim
G1 X123.142 Y58.550 E0.00744 ; brim
G1 X123.852 Y59.237 E0.00733 ; brim
G1 X124.528 Y60.312 E0.00943 ; brim
G1 X124.834 Y61.230 E0.00718 ; brim
G1 X124.946 Y62.205 E0.00728 ; brim
G1 X124.946 Y152.798 E0.67246 ; brim
G1 X124.802 Y153.903 E0.00827 ; brim
G1 X124.481 Y154.788 E0.00699 ; brim
G1 X123.989 Y155.591 E0.00699 ; brim
G1 X123.213 Y156.392 E0.00828 ; brim
G1 X122.190 Y157.027 E0.00893 ; brim
G1 X121.316 Y157.323 E0.00685 ; brim
G1 X120.405 Y157.440 E0.00682 ; brim
G1 X94.702 Y157.446 E0.19079 ; brim
G1 X93.597 Y157.302 E0.00827 ; brim
G1 X92.712 Y156.980 E0.00699 ; brim
G1 X91.907 Y156.488 E0.00701 ; brim
G1 X91.013 Y155.594 E0.00938 ; brim
G1 X90.520 Y154.789 E0.00700 ; brim
G1 X90.198 Y153.904 E0.00699 ; brim
G1 X90.054 Y152.798 E0.00828 ; brim
G1 X90.054 Y62.202 E0.67248 ; brim
G1 X90.198 Y61.097 E0.00827 ; brim
G1 X90.519 Y60.212 E0.00699 ; brim
G1 X91.011 Y59.409 E0.00699 ; brim
G1 X91.745 Y58.651 E0.00784 ; brim
G1 X91.907 Y58.740 F7800.000 ; move to first brim point
G1 F1800.000
G1 X92.877 Y58.139 E0.00847 ; brim
G1 X93.716 Y57.853 E0.00658 ; brim
G1 X94.612 Y57.738 E0.00671 ; brim
G1 X120.380 Y57.738 E0.19127 ; brim
G1 X121.332 Y57.864 E0.00713 ; brim
G1 X122.221 Y58.186 E0.00702 ; brim
G1 X123.039 Y58.697 E0.00716 ; brim
G1 X123.720 Y59.357 E0.00704 ; brim
G1 X124.362 Y60.379 E0.00896 ; brim
G1 X124.661 Y61.278 E0.00703 ; brim
G1 X124.768 Y62.210 E0.00696 ; brim
G1 X124.768 Y152.793 E0.67238 ; brim
G1 X124.631 Y153.851 E0.00792 ; brim
G1 X124.316 Y154.718 E0.00685 ; brim
G1 X123.843 Y155.489 E0.00671 ; brim
G1 X123.093 Y156.260 E0.00798 ; brim
G1 X122.123 Y156.861 E0.00847 ; brim
G1 X121.284 Y157.147 E0.00658 ; brim
G1 X120.388 Y157.262 E0.00671 ; brim
G1 X94.708 Y157.268 E0.19062 ; brim
G1 X93.648 Y157.131 E0.00793 ; brim
G1 X92.781 Y156.816 E0.00685 ; brim
G1 X92.009 Y156.341 E0.00673 ; brim
G1 X91.159 Y155.491 E0.00892 ; brim
G1 X90.685 Y154.719 E0.00673 ; brim
G1 X90.369 Y153.852 E0.00685 ; brim
G1 X90.232 Y152.793 E0.00793 ; brim
G1 X90.232 Y62.207 E0.67240 ; brim
G1 X90.369 Y61.149 E0.00792 ; brim
G1 X90.684 Y60.282 E0.00685 ; brim
G1 X91.157 Y59.511 E0.00671 ; brim
G1 X91.865 Y58.783 E0.00754 ; brim
G1 X92.027 Y58.872 F7800.000 ; move to first brim point
G1 F1800.000
G1 X92.944 Y58.305 E0.00800 ; brim
G1 X93.765 Y58.025 E0.00644 ; brim
G1 X94.629 Y57.916 E0.00647 ; brim
G1 X120.362 Y57.915 E0.19101 ; brim
G1 X121.281 Y58.036 E0.00687 ; brim
G1 X122.135 Y58.342 E0.00674 ; brim
G1 X122.922 Y58.832 E0.00688 ; brim
G1 X123.588 Y59.478 E0.00689 ; brim
G1 X124.196 Y60.446 E0.00849 ; brim
G1 X124.485 Y61.307 E0.00674 ; brim
G1 X124.589 Y62.215 E0.00678 ; brim
G1 X124.589 Y152.787 E0.67230 ; brim
G1 X124.460 Y153.800 E0.00758 ; brim
G1 X124.159 Y154.633 E0.00657 ; brim
G1 X123.696 Y155.387 E0.00657 ; brim
G1 X122.973 Y156.128 E0.00768 ; brim
G1 X122.056 Y156.695 E0.00800 ; brim
G1 X121.235 Y156.975 E0.00644 ; brim
G1 X120.371 Y157.084 E0.00647 ; brim
G1 X94.713 Y157.089 E0.19045 ; brim
G1 X93.700 Y156.960 E0.00758 ; brim
G1 X92.867 Y156.659 E0.00657 ; brim
G1 X92.111 Y156.195 E0.00658 ; brim
G1 X91.306 Y155.389 E0.00846 ; brim
G1 X90.842 Y154.634 E0.00658 ; brim
G1 X90.540 Y153.801 E0.00658 ; brim
G1 X90.411 Y152.787 E0.00759 ; brim
G1 X90.411 Y62.213 E0.67231 ; brim
G1 X90.540 Y61.200 E0.00758 ; brim
G1 X90.841 Y60.367 E0.00657 ; brim
G1 X91.304 Y59.613 E0.00657 ; brim
G1 X91.985 Y58.915 E0.00724 ; brim
G1 X92.131 Y59.018 F7800.000 ; move to first brim point
G1 F1800.000
G1 X93.011 Y58.470 E0.00770 ; brim
G1 X93.814 Y58.197 E0.00629 ; brim
G1 X94.645 Y58.094 E0.00622 ; brim
G1 X120.345 Y58.093 E0.19077 ; brim
G1 X121.229 Y58.207 E0.00662 ; brim
G1 X122.066 Y58.507 E0.00659 ; brim
G1 X122.819 Y58.978 E0.00659 ; brim
G1 X123.456 Y59.598 E0.00660 ; brim
G1 X124.030 Y60.513 E0.00802 ; brim
G1 X124.313 Y61.355 E0.00660 ; brim
G1 X124.411 Y62.220 E0.00646 ; brim
G1 X124.411 Y152.781 E0.67222 ; brim
G1 X124.288 Y153.749 E0.00724 ; brim
G1 X124.002 Y154.547 E0.00629 ; brim
G1 X123.549 Y155.285 E0.00643 ; brim
G1 X122.869 Y155.982 E0.00722 ; brim
G1 X121.989 Y156.530 E0.00770 ; brim
G1 X121.187 Y156.803 E0.00629 ; brim
G1 X120.355 Y156.906 E0.00622 ; brim
G1 X94.719 Y156.911 E0.19029 ; brim
G1 X93.751 Y156.789 E0.00724 ; brim
G1 X92.936 Y156.494 E0.00643 ; brim
G1 X92.214 Y156.048 E0.00630 ; brim
G1 X91.452 Y155.286 E0.00800 ; brim
G1 X91.006 Y154.564 E0.00630 ; brim
G1 X90.712 Y153.749 E0.00643 ; brim
G1 X90.589 Y152.781 E0.00724 ; brim
G1 X90.589 Y62.219 E0.67223 ; brim
G1 X90.712 Y61.251 E0.00724 ; brim
G1 X90.998 Y60.453 E0.00629 ; brim
G1 X91.451 Y59.715 E0.00643 ; brim
G1 X92.089 Y59.061 E0.00678 ; brim
G1 X92.251 Y59.151 F7800.000 ; move to first brim point
G1 F1800.000
G1 X93.079 Y58.636 E0.00724 ; brim
G1 X93.845 Y58.373 E0.00601 ; brim
G1 X94.662 Y58.272 E0.00611 ; brim
G1 X120.329 Y58.271 E0.19052 ; brim
G1 X121.179 Y58.378 E0.00636 ; brim
G1 X121.979 Y58.664 E0.00631 ; brim
G1 X122.716 Y59.124 E0.00645 ; brim
G1 X123.323 Y59.718 E0.00631 ; brim
G1 X123.865 Y60.580 E0.00755 ; brim
G1 X124.136 Y61.385 E0.00631 ; brim
G1 X124.232 Y62.225 E0.00627 ; brim
G1 X124.232 Y152.776 E0.67214 ; brim
G1 X124.117 Y153.698 E0.00690 ; brim
G1 X123.837 Y154.478 E0.00615 ; brim
G1 X123.402 Y155.183 E0.00615 ; brim
G1 X122.749 Y155.849 E0.00692 ; brim
G1 X121.921 Y156.364 E0.00724 ; brim
G1 X121.155 Y156.627 E0.00601 ; brim
G1 X120.338 Y156.728 E0.00611 ; brim
G1 X94.724 Y156.732 E0.19013 ; brim
G1 X93.802 Y156.617 E0.00690 ; brim
G1 X93.022 Y156.337 E0.00615 ; brim
G1 X92.317 Y155.902 E0.00615 ; brim
G1 X91.599 Y155.184 E0.00754 ; brim
G1 X91.163 Y154.479 E0.00615 ; brim
G1 X90.883 Y153.699 E0.00615 ; brim
G1 X90.768 Y152.776 E0.00690 ; brim
G1 X90.768 Y62.224 E0.67215 ; brim
G1 X90.883 Y61.302 E0.00690 ; brim
G1 X91.163 Y60.522 E0.00615 ; brim
G1 X91.598 Y59.817 E0.00615 ; brim
G1 X92.209 Y59.194 E0.00648 ; brim
G1 X92.370 Y59.284 F7800.000 ; move to first brim point
G1 F1800.000
G1 X93.146 Y58.801 E0.00678 ; brim
G1 X93.894 Y58.545 E0.00587 ; brim
G1 X94.678 Y58.450 E0.00586 ; brim
G1 X120.312 Y58.449 E0.19028 ; brim
G1 X121.128 Y58.550 E0.00610 ; brim
G1 X121.910 Y58.829 E0.00616 ; brim
G1 X122.613 Y59.270 E0.00616 ; brim
G1 X123.191 Y59.838 E0.00602 ; brim
G1 X123.699 Y60.647 E0.00709 ; brim
G1 X123.960 Y61.415 E0.00602 ; brim
G1 X124.053 Y62.230 E0.00609 ; brim
G1 X124.053 Y152.771 E0.67207 ; brim
G1 X123.946 Y153.647 E0.00656 ; brim
G1 X123.672 Y154.409 E0.00600 ; brim
G1 X123.256 Y155.080 E0.00586 ; brim
G1 X122.630 Y155.716 E0.00663 ; brim
G1 X121.853 Y156.199 E0.00678 ; brim
G1 X121.106 Y156.455 E0.00586 ; brim
G1 X120.322 Y156.550 E0.00586 ; brim
G1 X94.729 Y156.553 E0.18997 ; brim
G1 X93.853 Y156.446 E0.00656 ; brim
G1 X93.092 Y156.172 E0.00601 ; brim
G1 X92.420 Y155.755 E0.00587 ; brim
G1 X91.745 Y155.081 E0.00708 ; brim
G1 X91.328 Y154.409 E0.00587 ; brim
G1 X91.054 Y153.648 E0.00601 ; brim
G1 X90.947 Y152.771 E0.00656 ; brim
G1 X90.947 Y62.229 E0.67207 ; brim
G1 X91.054 Y61.353 E0.00656 ; brim
G1 X91.328 Y60.591 E0.00600 ; brim
G1 X91.744 Y59.920 E0.00586 ; brim
G1 X92.328 Y59.326 E0.00618 ; brim
G1 X92.474 Y59.429 F7800.000 ; move to first brim point
G1 F1800.000
G1 X93.214 Y58.967 E0.00648 ; brim
G1 X93.943 Y58.717 E0.00572 ; brim
G1 X94.694 Y58.627 E0.00561 ; brim
G1 X120.296 Y58.627 E0.19004 ; brim
G1 X121.078 Y58.721 E0.00585 ; brim
G1 X121.824 Y58.985 E0.00587 ; brim
G1 X122.494 Y59.404 E0.00587 ; brim
G1 X123.058 Y59.958 E0.00587 ; brim
G1 X123.533 Y60.715 E0.00663 ; brim
G1 X123.788 Y61.463 E0.00587 ; brim
G1 X123.875 Y62.235 E0.00576 ; brim
G1 X123.875 Y152.765 E0.67199 ; brim
G1 X123.774 Y153.597 E0.00622 ; brim
G1 X123.515 Y154.323 E0.00572 ; brim
G1 X123.109 Y154.977 E0.00572 ; brim
G1 X122.526 Y155.571 E0.00617 ; brim
G1 X121.786 Y156.033 E0.00648 ; brim
G1 X121.057 Y156.283 E0.00572 ; brim
G1 X120.306 Y156.373 E0.00561 ; brim
G1 X94.735 Y156.375 E0.18981 ; brim
G1 X93.903 Y156.274 E0.00622 ; brim
G1 X93.177 Y156.016 E0.00572 ; brim
G1 X92.522 Y155.609 E0.00572 ; brim
G1 X91.891 Y154.978 E0.00663 ; brim
G1 X91.485 Y154.323 E0.00572 ; brim
G1 X91.226 Y153.597 E0.00572 ; brim
G1 X91.125 Y152.765 E0.00622 ; brim
G1 X91.125 Y62.235 E0.67199 ; brim
G1 X91.226 Y61.403 E0.00622 ; brim
G1 X91.485 Y60.677 E0.00572 ; brim
G1 X91.891 Y60.023 E0.00572 ; brim
G1 X92.432 Y59.472 E0.00573 ; brim
G1 X92.594 Y59.562 F7800.000 ; move to first brim point
G1 F1800.000
G1 X93.282 Y59.132 E0.00603 ; brim
G1 X93.973 Y58.893 E0.00543 ; brim
G1 X94.709 Y58.805 E0.00550 ; brim
G1 X120.291 Y58.805 E0.18989 ; brim
G1 X121.047 Y58.897 E0.00565 ; brim
G1 X121.755 Y59.150 E0.00558 ; brim
G1 X122.391 Y59.550 E0.00558 ; brim
G1 X122.925 Y60.078 E0.00557 ; brim
G1 X123.368 Y60.783 E0.00618 ; brim
G1 X123.612 Y61.493 E0.00558 ; brim
G1 X123.696 Y62.240 E0.00558 ; brim
G1 X123.696 Y152.760 E0.67191 ; brim
G1 X123.602 Y153.547 E0.00588 ; brim
G1 X123.359 Y154.237 E0.00543 ; brim
G1 X122.963 Y154.875 E0.00557 ; brim
G1 X122.406 Y155.438 E0.00587 ; brim
G1 X121.718 Y155.868 E0.00603 ; brim
G1 X121.027 Y156.107 E0.00543 ; brim
G1 X120.291 Y156.195 E0.00550 ; brim
G1 X94.740 Y156.196 E0.18966 ; brim
G1 X93.954 Y156.103 E0.00588 ; brim
G1 X93.247 Y155.851 E0.00557 ; brim
G1 X92.626 Y155.463 E0.00543 ; brim
G1 X92.037 Y154.875 E0.00618 ; brim
G1 X91.650 Y154.254 E0.00543 ; brim
G1 X91.398 Y153.547 E0.00558 ; brim
G1 X91.304 Y152.760 E0.00588 ; brim
G1 X91.304 Y62.240 E0.67191 ; brim
G1 X91.398 Y61.453 E0.00588 ; brim
G1 X91.641 Y60.763 E0.00543 ; brim
G1 X92.037 Y60.125 E0.00557 ; brim
G1 X92.551 Y59.605 E0.00543 ; brim
G1 X92.713 Y59.696 F7800.000 ; move to first brim point
G1 F1800.000
G1 X93.350 Y59.298 E0.00558 ; brim
G1 X94.023 Y59.065 E0.00528 ; brim
G1 X94.725 Y58.983 E0.00525 ; brim
G1 X120.275 Y58.983 E0.18966 ; brim
G1 X120.997 Y59.069 E0.00539 ; brim
G1 X121.668 Y59.306 E0.00529 ; brim
G1 X122.288 Y59.696 E0.00543 ; brim
G1 X122.792 Y60.197 E0.00528 ; brim
G1 X123.202 Y60.851 E0.00573 ; brim
G1 X123.435 Y61.523 E0.00528 ; brim
G1 X123.518 Y62.245 E0.00539 ; brim
G1 X123.518 Y152.755 E0.67184 ; brim
G1 X123.431 Y153.497 E0.00554 ; brim
G1 X123.194 Y154.168 E0.00528 ; brim
G1 X122.817 Y154.772 E0.00528 ; brim
G1 X122.287 Y155.304 E0.00558 ; brim
G1 X121.650 Y155.702 E0.00558 ; brim
G1 X120.977 Y155.935 E0.00528 ; brim
G1 X120.275 Y156.017 E0.00525 ; brim
G1 X94.745 Y156.018 E0.18951 ; brim
G1 X94.004 Y155.931 E0.00554 ; brim
G1 X93.333 Y155.694 E0.00528 ; brim
G1 X92.729 Y155.317 E0.00528 ; brim
G1 X92.183 Y154.772 E0.00573 ; brim
G1 X91.806 Y154.168 E0.00528 ; brim
G1 X91.569 Y153.497 E0.00528 ; brim
G1 X91.482 Y152.755 E0.00554 ; brim
G1 X91.482 Y62.245 E0.67184 ; brim
G1 X91.569 Y61.503 E0.00554 ; brim
G1 X91.806 Y60.832 E0.00528 ; brim
G1 X92.183 Y60.228 E0.00528 ; brim
G1 X92.671 Y59.738 E0.00513 ; brim
G1 X92.817 Y59.841 F7800.000 ; move to first brim point
G1 F1800.000
G1 X93.419 Y59.463 E0.00528 ; brim
G1 X94.053 Y59.241 E0.00499 ; brim
G1 X94.740 Y59.161 E0.00513 ; brim
G1 X120.260 Y59.161 E0.18943 ; brim
G1 X120.947 Y59.241 E0.00513 ; brim
G1 X121.599 Y59.471 E0.00513 ; brim
G1 X122.184 Y59.841 E0.00513 ; brim
